packages/kaspersky-hexa-ui-icons/src/iconsSVGs/16/Yandex2Color.svg

<svg width="16" height="16" viewBox="0 0 16 16" fill="none" xmlns="http://www.w3.org/2000/svg">
<g clip-path="url(#clip0_21654_2247)">
<path fill-rule="evenodd" clip-rule="evenodd" d="M15.3334 7.99984C15.3334 12.0499 12.0501 15.3332 8.00008 15.3332C3.95 15.3332 0.666748 12.0499 0.666748 7.99984C0.666748 3.94975 3.95 0.666504 8.00008 0.666504C12.0501 0.666504 15.3334 3.94975 15.3334 7.99984Z" fill="url(#paint0_linear_21654_2247)"/>
<path fill-rule="evenodd" clip-rule="evenodd" d="M14.9782 7.99984C14.9782 11.8537 11.854 14.978 8.00007 14.978C4.14616 14.978 1.02196 11.8537 1.02196 7.99984C1.02196 4.14592 4.14616 1.02171 8.00007 1.02171C11.854 1.02171 14.9782 4.14592 14.9782 7.99984Z" fill="white"/>
<path fill-rule="evenodd" clip-rule="evenodd" d="M12.7209 4.97487L8.79642 8.81342V13.5858C8.79642 13.6718 8.42402 13.7405 8.00006 13.7462C7.59329 13.7405 7.20372 13.6718 7.20372 13.5858V8.81342L3.27924 4.97487C3.21622 4.91185 3.41674 4.61394 3.72611 4.30456C4.03549 3.99519 4.33914 3.79467 4.39643 3.85769L7.99434 7.36967L11.5923 3.85769C11.6553 3.79467 11.9532 3.99519 12.2626 4.30456C12.572 4.61394 12.7782 4.91185 12.7209 4.97487Z" fill="#EC1C24"/>
</g>
<defs>
<linearGradient id="paint0_linear_21654_2247" x1="8.00008" y1="0.666504" x2="8.00008" y2="15.3332" gradientUnits="userSpaceOnUse">
<stop offset="1e-07" stop-color="#F5F5F6"/>
<stop offset="1" stop-color="#EDEDEE"/>
</linearGradient>
<clipPath id="clip0_21654_2247">
<rect width="16" height="16" fill="white"/>
</clipPath>
</defs>
</svg>

<svg xmlns="http://www.w3.org/2000/svg" width="16" height="16" fill="none" viewBox="0 0 16 16"><g fill-rule="evenodd" clip-path="url(#a)" clip-rule="evenodd"><path fill="url(#b)" d="M15.3334 7.9998c0 4.0501-3.2833 7.3334-7.3333 7.3334S.6667 12.0499.6667 7.9998c0-4.05 3.2833-7.3333 7.3334-7.3333 4.05 0 7.3333 3.2833 7.3333 7.3333"/><path fill="#fff" d="M14.9782 7.9998c0 3.8539-3.1242 6.9782-6.9781 6.9782S1.022 11.8537 1.022 7.9998 4.1462 1.0218 8 1.0218c3.854 0 6.9782 3.1241 6.9782 6.978"/><path fill="#ec1c24" d="M12.7209 4.9749 8.7964 8.8134v4.7724c0 .086-.3724.1547-.7963.1604-.4068-.0057-.7964-.0744-.7964-.1604V8.8134L3.2792 4.975c-.063-.063.1375-.361.447-.6703.3093-.3094.613-.51.6702-.447l3.598 3.512 3.5979-3.512c.063-.063.3609.1376.6703.447s.5156.6073.4583.6703"/></g><defs><linearGradient id="b" x1="8" x2="8" y1="1" y2="15" gradientUnits="userSpaceOnUse"><stop offset="0" stop-color="#f5f5f6"/><stop offset="1" stop-color="#ededee"/></linearGradient><clipPath id="a"><path fill="#fff" d="M0 0h16v16H0z"/></clipPath></defs></svg>
